X:1
T: Kathryn
C:Bruce Shawyer
R:Strathspey
Q:128
K:G
M:4/4
L:1/16
|:G3D GG3 A3E AA3|G3D GG3 c3B A3G|B,3D B3G c3B A3G|F3G A3c BG3 G4|
G3D GG3 A3E AA3|G3D GG3 c3B A3G|B,3D B3G c3B A3G|F3G A3c BG3 G4|
g3a g3f ee3 g3e|g3a g3d B3d BG3|b3a g3e c'3b a3g|b3a f3d BG3 G4|
g3a g3f ee3 g3e|g3a g3d B3d BG3|b3a g3e c'3b a3g|b3a f3d BG3 G4:|
